alibaba.svg

<svg viewBox="0 0 24 24" xmlns="http://www.w3.org/2000/svg"><path d="M2.61469 16.658C2.51735 16.6467 2.36521 16.5602 2.25722 16.4735C1.22957 15.4669 2.54906 14.3094 4.07548 13.6386L4.07548 11.7237C4.43234 11.9511 4.62744 11.9615 4.63787 11.994L5.80642 10.8365L5.41684 9.84057C8.83638 8.66118 10.2103 8.20657 12.9913 7.74172L12.4928 7.27586L13.305 6.81121C15.1767 7.42841 16.9411 7.59018 16.6375 9.15915C16.7135 8.09878 15.3933 7.68732 13.3807 7.12493L12.9913 7.36257L13.7376 7.97956C10.4053 8.553 8.36009 9.2025 5.92544 10.0463L6.26063 10.9122L5.03829 12.113C5.24422 12.1672 7.37559 12.8812 9.59326 11.3341C9.59326 11.3341 9.63702 11.3014 9.63702 11.2907C9.57259 11.1825 9.42045 11.0631 9.2368 10.9013C9.8861 10.9447 10.3074 11.5179 10.2319 12.113L9.92905 12.113C9.95053 11.9181 9.90718 11.7126 9.84275 11.5721C8.12224 12.8274 6.13117 13.0114 4.43234 12.4161L4.43234 13.8984C3.61002 14.1906 2.138 15.0988 2.14924 15.9761C2.20323 16.3978 2.4198 16.5492 2.61469 16.658" fill="#000000"/><path d="M9.64203 16.1608C7.8013 17.0913 6.03844 17.838 3.3224 17.9461C-0.215757 17.8701-0.767516 15.5217 0.909437 13.066C2.48924 10.5882 4.99976 8.34787 8.99253 6.95192C10.1498 6.54186 11.8489 6.07601 13.4935 6.05433C15.8525 6.03245 18.1468 6.76846 17.9949 9.03009C17.9082 10.7614 15.4093 13.2065 14.0886 14.9597C13.5258 15.7275 13.4283 16.2256 14.3911 16.1825C17.8869 15.9547 21.057 14.7434 24 13.4879C22.0095 14.8405 11.7186 19.9366 11.6761 16.4639C11.6865 16.0197 11.8918 15.5547 12.2272 15.0571C12.5524 14.5591 13.0066 14.0397 13.4718 13.5096C14.1751 12.709 15.9171 10.7938 16.5014 9.64648C17.4859 7.47176 15.2788 7.36338 13.3743 6.6928L12.5622 7.15745L13.0608 7.6233C10.2797 8.08835 8.90582 8.54276 5.48628 9.72235L5.87587 10.7181L4.70732 11.8756C4.675 11.8433 4.50179 11.8328 4.14472 11.6052L4.14472 13.5202C2.6185 14.1912 1.29882 15.3487 2.32647 16.3551C2.43465 16.4418 2.58679 16.5283 2.68414 16.5395C4.55578 17.5999 9.65187 16.1608 9.64203 16.1608" fill="#ff6600"/></svg>

<svg viewBox="0 0 24 24" xmlns="http://www.w3.org/2000/svg"><path d="M2.615 16.658c-.098-.011-.25-.098-.358-.184-1.027-1.007.292-2.165 1.818-2.835v-1.915c.357.227.552.237.563.27l1.168-1.158-.39-.995c3.42-1.18 4.794-1.634 7.575-2.1l-.498-.465.812-.465c1.872.617 3.636.78 3.332 2.348.076-1.06-1.244-1.472-3.256-2.034l-.39.238.747.617c-3.333.573-5.378 1.223-7.813 2.066l.336.866-1.223 1.201c.206.054 2.338.768 4.555-.779 0 0 .044-.033.044-.043-.064-.109-.217-.228-.4-.39.65.044 1.07.617.995 1.212h-.303c.022-.195-.022-.4-.086-.54-1.72 1.254-3.712 1.438-5.41.843v1.482c-.823.293-2.295 1.2-2.284 2.078.054.422.27.573.466.682"/><path d="M9.642 16.16c-1.84.931-3.604 1.678-6.32 1.786-3.538-.076-4.09-2.424-2.413-4.88C2.49 10.588 5 8.348 8.993 6.952c1.157-.41 2.856-.876 4.5-.898 2.36-.022 4.654.714 4.502 2.976-.087 1.731-2.586 4.177-3.906 5.93-.563.767-.66 1.266.302 1.223 3.496-.228 6.666-1.44 9.609-2.695-1.99 1.353-12.281 6.449-12.324 2.976.01-.444.216-.91.551-1.407.325-.498.78-1.017 1.245-1.547.703-.801 2.445-2.716 3.03-3.864.984-2.174-1.223-2.283-3.128-2.953l-.812.464.499.466c-2.781.465-4.155.92-7.575 2.1l.39.995-1.169 1.158c-.032-.033-.205-.043-.562-.27v1.914c-1.526.671-2.846 1.829-1.819 2.835.109.087.26.173.358.184 1.872 1.06 6.968-.378 6.958-.378" fill="#f60"/></svg>
